img/tile2.svg

<svg xmlns="http://www.w3.org/2000/svg" width="238.49" height="87.314" viewBox="0 0 238.49 87.314"><rect x="58.256" y="31.222" width="25.262" height="46.21" stroke="#fff" stroke-miterlimit="10" fill="none"/><path d="M87.78 83.078c0 1.779-1.456 3.236-3.237 3.236h-27.312c-1.78 0-3.237-1.457-3.237-3.236v-53.841c0-1.78 1.457-3.237 3.237-3.237h27.312c1.781 0 3.237 1.457 3.237 3.237v53.841z" stroke="#fff" stroke-width="2" stroke-miterlimit="10" fill="none"/><circle cx="70.887" cy="81.67" r="1.858" stroke="#fff" stroke-miterlimit="10" fill="none"/><line x1="68.712" y1="28.81" x2="63.493" y2="28.81" stroke="#fff" stroke-miterlimit="10" fill="none"/><path d="M70.471 29.56c.965 0 .967-1.5 0-1.5-.966 0-.968 1.5 0 1.5" fill="#fff"/><rect x="145.334" y="31.222" width="25.263" height="46.21" stroke="#fff" stroke-miterlimit="10" fill="none"/><path d="M174.857 83.078c0 1.779-1.456 3.236-3.236 3.236h-27.312c-1.78 0-3.237-1.457-3.237-3.236v-53.841c0-1.78 1.457-3.237 3.237-3.237h27.312c1.78 0 3.236 1.457 3.236 3.237v53.841z" stroke="#fff" stroke-width="2" stroke-miterlimit="10" fill="none"/><circle cx="157.965" cy="81.67" r="1.857" stroke="#fff" stroke-miterlimit="10" fill="none"/><line x1="155.789" y1="28.81" x2="150.57" y2="28.81" stroke="#fff" stroke-miterlimit="10" fill="none"/><path d="M157.548 29.56c.965 0 .967-1.5 0-1.5-.965 0-.967 1.5 0 1.5" fill="#fff"/><rect x="188.872" y="6.222" width="25.263" height="46.21" stroke="#fff" stroke-miterlimit="10" fill="none"/><path d="M218.396 58.078c0 1.78-1.456 3.237-3.237 3.237h-27.312c-1.78 0-3.237-1.457-3.237-3.237v-53.841c0-1.78 1.457-3.237 3.237-3.237h27.312c1.781 0 3.237 1.457 3.237 3.237v53.841z" stroke="#fff" stroke-width="2" stroke-linecap="round" stroke-miterlimit="10" stroke-dasharray="1,4" fill="none"/><circle cx="201.503" cy="56.67" r="1.858" stroke="#fff" stroke-miterlimit="10" fill="none"/><line x1="199.328" y1="3.81" x2="194.108" y2="3.81" stroke="#fff" stroke-miterlimit="10" fill="none"/><path d="M201.086 4.56c.966 0 .968-1.5 0-1.5-.965 0-.967 1.5 0 1.5" fill="#fff"/><rect x="14.718" y="31.222" width="25.262" height="46.21" stroke="#fff" stroke-miterlimit="10" fill="none"/><path d="M44.242 83.078c0 1.779-1.456 3.236-3.237 3.236h-27.312c-1.78 0-3.237-1.457-3.237-3.236v-53.841c0-1.78 1.457-3.237 3.237-3.237h27.312c1.781 0 3.237 1.457 3.237 3.237v53.841z" stroke="#fff" stroke-width="2" stroke-miterlimit="10" fill="none"/><circle cx="27.349" cy="81.67" r="1.857" stroke="#fff" stroke-miterlimit="10" fill="none"/><line x1="25.173" y1="28.81" x2="19.954" y2="28.81" stroke="#fff" stroke-miterlimit="10" fill="none"/><path d="M26.932 29.56c.965 0 .967-1.5 0-1.5-.965 0-.967 1.5 0 1.5" fill="#fff"/><rect x="101.795" y="31.222" width="25.262" height="46.21" stroke="#fff" stroke-miterlimit="10" fill="none"/><path d="M131.319 83.078c0 1.779-1.456 3.236-3.237 3.236h-27.312c-1.78 0-3.237-1.457-3.237-3.236v-53.841c0-1.78 1.457-3.237 3.237-3.237h27.312c1.781 0 3.237 1.457 3.237 3.237v53.841z" stroke="#fff" stroke-width="2" stroke-miterlimit="10" fill="none"/><circle cx="114.426" cy="81.67" r="1.857" stroke="#fff" stroke-miterlimit="10" fill="none"/><line x1="112.25" y1="28.81" x2="107.031" y2="28.81" stroke="#fff" stroke-miterlimit="10" fill="none"/><path d="M114.01 29.56c.965 0 .967-1.5 0-1.5-.966 0-.968 1.5 0 1.5" fill="#fff"/><path d="M36.156 52.895c0 4.779-3.874 8.654-8.654 8.654-4.779 0-8.653-3.875-8.653-8.654s3.874-8.654 8.653-8.654c4.78 0 8.654 3.875 8.654 8.654" stroke="#2D3943" stroke-width="2" stroke-miterlimit="10" fill="none"/><polyline points="31.927,50.732 26.119,56.54 23.078,53.502 24.114,52.464 26.119,54.469 30.892,49.696" fill="#2D3943"/><line y1="86.314" x2="238.49" y2="86.314" stroke="#fff" stroke-width="2" stroke-miterlimit="10" fill="none"/><path d="M79.656 52.895c0 4.779-3.874 8.654-8.654 8.654-4.779 0-8.653-3.875-8.653-8.654s3.874-8.654 8.653-8.654c4.78 0 8.654 3.875 8.654 8.654" stroke="#2D3943" stroke-width="2" stroke-miterlimit="10" fill="none"/><polyline points="75.427,50.732 69.619,56.54 66.578,53.502 67.614,52.464 69.619,54.469 74.392,49.696" fill="#2D3943"/><path d="M122.656 52.895c0 4.779-3.874 8.654-8.654 8.654-4.779 0-8.652-3.875-8.652-8.654s3.873-8.654 8.652-8.654c4.78 0 8.654 3.875 8.654 8.654" stroke="#2D3943" stroke-width="2" stroke-miterlimit="10" fill="none"/><polyline points="118.427,50.732 112.619,56.54 109.578,53.502 110.614,52.464 112.619,54.469 117.392,49.696" fill="#2D3943"/><path d="M166.156 52.895c0 4.779-3.874 8.654-8.654 8.654-4.778 0-8.652-3.875-8.652-8.654s3.874-8.654 8.652-8.654c4.78 0 8.654 3.875 8.654 8.654" stroke="#2D3943" stroke-width="2" stroke-miterlimit="10" fill="none"/><polyline points="161.927,50.732 156.119,56.54 153.078,53.502 154.114,52.464 156.119,54.469 160.892,49.696" fill="#2D3943"/></svg>

<?xml version="1.0" encoding="iso-8859-1"?>
<!-- Generator: Adobe Illustrator 16.0.4, SVG Export Plug-In . SVG Version: 6.00 Build 0)  -->
<!DOCTYPE svg PUBLIC "-//W3C//DTD SVG 1.1//EN" "http://www.w3.org/Graphics/SVG/1.1/DTD/svg11.dtd">
<svg version="1.1" id="Layer_1" xmlns="http://www.w3.org/2000/svg" xmlns:xlink="http://www.w3.org/1999/xlink" x="0px" y="0px"
	 width="238.49px" height="87.314px" viewBox="0 0 238.49 87.314" style="enable-background:new 0 0 238.49 87.314;"
	 xml:space="preserve">
<rect x="58.256" y="31.222" style="fill:none;stroke:#FFFFFF;stroke-miterlimit:10;" width="25.262" height="46.21"/>
<path style="fill:none;stroke:#FFFFFF;stroke-width:2;stroke-miterlimit:10;" d="M87.78,83.078c0,1.779-1.456,3.236-3.237,3.236
	H57.231c-1.78,0-3.237-1.457-3.237-3.236V29.237c0-1.78,1.457-3.237,3.237-3.237h27.312c1.781,0,3.237,1.457,3.237,3.237V83.078z"/>
<circle style="fill:none;stroke:#FFFFFF;stroke-miterlimit:10;" cx="70.887" cy="81.67" r="1.858"/>
<line style="fill:none;stroke:#FFFFFF;stroke-miterlimit:10;" x1="68.712" y1="28.81" x2="63.493" y2="28.81"/>
<path style="fill:#FFFFFF;" d="M70.471,29.56c0.965,0,0.967-1.5,0-1.5C69.505,28.06,69.503,29.56,70.471,29.56"/>
<rect x="145.334" y="31.222" style="fill:none;stroke:#FFFFFF;stroke-miterlimit:10;" width="25.263" height="46.21"/>
<path style="fill:none;stroke:#FFFFFF;stroke-width:2;stroke-miterlimit:10;" d="M174.857,83.078c0,1.779-1.456,3.236-3.236,3.236
	h-27.312c-1.78,0-3.237-1.457-3.237-3.236V29.237c0-1.78,1.457-3.237,3.237-3.237h27.312c1.78,0,3.236,1.457,3.236,3.237V83.078z"/>
<circle style="fill:none;stroke:#FFFFFF;stroke-miterlimit:10;" cx="157.965" cy="81.67" r="1.857"/>
<line style="fill:none;stroke:#FFFFFF;stroke-miterlimit:10;" x1="155.789" y1="28.81" x2="150.57" y2="28.81"/>
<path style="fill:#FFFFFF;" d="M157.548,29.56c0.965,0,0.967-1.5,0-1.5C156.583,28.06,156.581,29.56,157.548,29.56"/>
<rect x="188.872" y="6.222" style="fill:none;stroke:#FFFFFF;stroke-miterlimit:10;" width="25.263" height="46.21"/>
<path style="fill:none;stroke:#FFFFFF;stroke-width:2;stroke-linecap:round;stroke-miterlimit:10;stroke-dasharray:1,4;" d="
	M218.396,58.078c0,1.78-1.456,3.237-3.237,3.237h-27.312c-1.78,0-3.237-1.457-3.237-3.237V4.237c0-1.78,1.457-3.237,3.237-3.237
	h27.312c1.781,0,3.237,1.457,3.237,3.237V58.078z"/>
<circle style="fill:none;stroke:#FFFFFF;stroke-miterlimit:10;" cx="201.503" cy="56.67" r="1.858"/>
<line style="fill:none;stroke:#FFFFFF;stroke-miterlimit:10;" x1="199.328" y1="3.81" x2="194.108" y2="3.81"/>
<path style="fill:#FFFFFF;" d="M201.086,4.56c0.966,0,0.968-1.5,0-1.5C200.121,3.06,200.119,4.56,201.086,4.56"/>
<rect x="14.718" y="31.222" style="fill:none;stroke:#FFFFFF;stroke-miterlimit:10;" width="25.262" height="46.21"/>
<path style="fill:none;stroke:#FFFFFF;stroke-width:2;stroke-miterlimit:10;" d="M44.242,83.078c0,1.779-1.456,3.236-3.237,3.236
	H13.693c-1.78,0-3.237-1.457-3.237-3.236V29.237c0-1.78,1.457-3.237,3.237-3.237h27.312c1.781,0,3.237,1.457,3.237,3.237V83.078z"/>
<circle style="fill:none;stroke:#FFFFFF;stroke-miterlimit:10;" cx="27.349" cy="81.67" r="1.857"/>
<line style="fill:none;stroke:#FFFFFF;stroke-miterlimit:10;" x1="25.173" y1="28.81" x2="19.954" y2="28.81"/>
<path style="fill:#FFFFFF;" d="M26.932,29.56c0.965,0,0.967-1.5,0-1.5C25.967,28.06,25.965,29.56,26.932,29.56"/>
<rect x="101.795" y="31.222" style="fill:none;stroke:#FFFFFF;stroke-miterlimit:10;" width="25.262" height="46.21"/>
<path style="fill:none;stroke:#FFFFFF;stroke-width:2;stroke-miterlimit:10;" d="M131.319,83.078c0,1.779-1.456,3.236-3.237,3.236
	H100.77c-1.78,0-3.237-1.457-3.237-3.236V29.237c0-1.78,1.457-3.237,3.237-3.237h27.312c1.781,0,3.237,1.457,3.237,3.237V83.078z"/>
<circle style="fill:none;stroke:#FFFFFF;stroke-miterlimit:10;" cx="114.426" cy="81.67" r="1.857"/>
<line style="fill:none;stroke:#FFFFFF;stroke-miterlimit:10;" x1="112.25" y1="28.81" x2="107.031" y2="28.81"/>
<path style="fill:#FFFFFF;" d="M114.01,29.56c0.965,0,0.967-1.5,0-1.5C113.044,28.06,113.042,29.56,114.01,29.56"/>
<path style="fill:none;stroke:#2D3943;stroke-width:2;stroke-miterlimit:10;" d="M36.156,52.895c0,4.779-3.874,8.654-8.654,8.654
	c-4.779,0-8.653-3.875-8.653-8.654c0-4.779,3.874-8.654,8.653-8.654C32.282,44.241,36.156,48.116,36.156,52.895"/>
<polyline style="fill:#2D3943;" points="31.927,50.732 26.119,56.54 23.078,53.502 24.114,52.464 26.119,54.469 30.892,49.696 "/>
<line style="fill:none;stroke:#FFFFFF;stroke-width:2;stroke-miterlimit:10;" x1="0" y1="86.314" x2="238.49" y2="86.314"/>
<path style="fill:none;stroke:#2D3943;stroke-width:2;stroke-miterlimit:10;" d="M79.656,52.895c0,4.779-3.874,8.654-8.654,8.654
	c-4.779,0-8.653-3.875-8.653-8.654c0-4.779,3.874-8.654,8.653-8.654C75.782,44.241,79.656,48.116,79.656,52.895"/>
<polyline style="fill:#2D3943;" points="75.427,50.732 69.619,56.54 66.578,53.502 67.614,52.464 69.619,54.469 74.392,49.696 "/>
<path style="fill:none;stroke:#2D3943;stroke-width:2;stroke-miterlimit:10;" d="M122.656,52.895c0,4.779-3.874,8.654-8.654,8.654
	c-4.779,0-8.652-3.875-8.652-8.654c0-4.779,3.873-8.654,8.652-8.654C118.782,44.241,122.656,48.116,122.656,52.895"/>
<polyline style="fill:#2D3943;" points="118.427,50.732 112.619,56.54 109.578,53.502 110.614,52.464 112.619,54.469 
	117.392,49.696 "/>
<path style="fill:none;stroke:#2D3943;stroke-width:2;stroke-miterlimit:10;" d="M166.156,52.895c0,4.779-3.874,8.654-8.654,8.654
	c-4.778,0-8.652-3.875-8.652-8.654c0-4.779,3.874-8.654,8.652-8.654C162.282,44.241,166.156,48.116,166.156,52.895"/>
<polyline style="fill:#2D3943;" points="161.927,50.732 156.119,56.54 153.078,53.502 154.114,52.464 156.119,54.469 
	160.892,49.696 "/>
<g>
</g>
<g>
</g>
<g>
</g>
<g>
</g>
<g>
</g>
<g>
</g>
<g>
</g>
<g>
</g>
<g>
</g>
<g>
</g>
<g>
</g>
<g>
</g>
<g>
</g>
<g>
</g>
<g>
</g>
</svg>
